X: 8
T: the Fox Hunt
O: trad
Z: 1997 by John Chambers <jc:trillian.mit.edu>
M: 9/8
L: 1/8
K: G
|: "G"~B3 BGB "C"c3 | "G"~B3 BGB "D7"A2G | "G"~B3 BGB "C"cde | "G"dzG GAB "D"A2"G"G :|
|: "C"e2e e2d c2d | "Am"ezA A2B "D7"cBA | "G"def gfe "D7"def | "G"gzG GAB "D"A2"G"G :|
%%sep 2 1 500
